img/svg/mono/arrow.svg

<svg width="22" height="10" viewBox="0 0 22 10" fill="none" xmlns="http://www.w3.org/2000/svg">
<path d="M16.4918 3.67182H1.81185C1.07852 3.67182 0.478516 4.27182 0.478516 5.00515C0.478516 5.73848 1.07852 6.33848 1.81185 6.33848H16.4918V8.72515C16.4918 9.32515 17.2118 9.61848 17.6252 9.19182L21.3318 5.47182C21.5852 5.20515 21.5852 4.79182 21.3318 4.52515L17.6252 0.80515C17.2118 0.378483 16.4918 0.685149 16.4918 1.27182V3.67182Z" fill="#D8625C"/>
</svg>

<svg width="22" height="10" viewBox="0 0 22 10" fill="none" xmlns="http://www.w3.org/2000/svg"><path d="M16.492 3.672H1.812c-.733 0-1.333.6-1.333 1.333s.6 1.333 1.333 1.333h14.68v2.387c0 .6.72.893 1.133.467l3.707-3.72a.684.684 0 000-.947L17.625.805c-.413-.427-1.133-.12-1.133.467v2.4z" fill="#D8625C"/></svg>
